X:1
T: Blue Bonnets
T: 8 x 32J3C (RSCDS Book 3)
P: All the Blue Bonnets Are Over the Border [Bb version]
C: From Barbara McOwen, arr. T. Traub 2-24-2004
R: Jig
M: 6/8
K: Bb
L: 1/8
b|:"Bb"BBB d2 f|b2 b b2 f|"Ab"_aba "Eb"g<bg|"Bb"fdB "F7"c2 d|"Bb"BBB d2 f|"Bb"b2 b b2 f|"Eb"gfe "Bb"def|"Cm"g<bd "F"c2 B :|
|: "Bb"Bdf fdB|"Eb"gfe "Bb"dcB|"Bb"Bdf "Eb"gab|"Cm"Bcd "F"c2 B|"Bb"Bdf fdB|"Eb"gfe "Gm"dcB |"Eb"bag "Bb"fdf|"Eb"g<bd "F7 (Bb7)"c2 B :|
K: Eb
|: "Eb"e3 "Ab"e3|"Eb"egf ecB|"Ab"ecc c2B|"Bb"bBb g2 f|"Eb"e3 "Ab"e3|"Eb"egf ecB|"Ab"edc Bcd|"Fm"efg "Bb"f2 e :|
"Eb"egb bge|"Ab"bag "Bb"gfg|"Eb"egb "Cm"bge|"Fm"efg "Bb"f2 e|"Eb"egb bge|"Eb7"bag gfg|"Ab"edc Bcd|"Fm"efg "Bb"f2 e||
"Eb"egb bge|"Ab"bag "Bb"gfg|"Eb"egb "Cm"bge|"Fm"efg "Bb"f2 e|"Eb"egb bge|"Eb7"bag g2 f|"Ab"edc Bcd|"Fm"efg "Bb"f2 e||